X:158
%%etbk:tnset id:53,pos:6,rep:3x,ant:
%%etbk:tnset id:183,pos:2,rep:3x-STOP,ant:
%%etbk:tnset id:274,pos:3,rep:2x,ant:
%%etbk:wsite http://www.thesession.org/tunes/display/24
%%etbk:pldat 2016-06-23T18:53,2016-06-22T15:48,2016-06-21T15:26,2016-05-05T15:26,2016-05-03T17:24,2016-03-11T16:36,2016-03-09T16:37,2016-03-08T17:13,2016-03-05T15:50,2016-02-27T14:53,2016-02-16T17:08,2016-02-07T14:56,2015-11-03T15:19,2015-10-28T15:47,2015-10-25T13:52,2015-10-22T18:21,2015-10-06T16:59,2015-09-29T16:15,2015-06-23T18:07,2015-06-18T18:48,2015-06-10T16:30,2015-05-27T18:17,2015-03-13T19:03,2015-03-11T16:34,2015-03-05T18:49,2015-02-22T16:28,2015-02-17T17:21,2015-02-04T16:43,2015-01-27T15:50,2014-11-06T18:20,2014-11-04T16:09,2014-11-02T15:33,2014-10-29T15:49,2014-10-27T19:10,2014-10-20T18:09,2014-10-11T15:15,2014-08-21T18:06,2014-08-18T18:29,2014-06-23T18:23,2014-06-07T15:14,2014-06-03T15:40,2014-03-06T18:21,2014-03-03T18:26,2014-02-27T18:13,2014-02-18T16:23,2014-01-22T16:44,2014-01-21T17:41,2014-01-19T14:01,2014-01-18T14:33,2014-01-15T16:21,2014-01-08T15:33,2014-01-06T18:32,2013-10-30T17:18,2013-10-29T16:04,2013-10-27T14:50,2013-10-24T18:36,2013-10-18T15:42,2013-10-16T16:06,2013-10-13T15:10,2013-10-08T15:36
T: Dinkey's
M: 4/4
L: 1/8
R: reel
K: Amix
!5!ed |: "A"!3!cdBc !1!AB!3!c!1!d | !2!e!4!gfd !2!e!1!d!2!B!1!d | "G"!4!g!1!B!2!B!1!B !4!gB!5!aB | !4!g!1!B!2!B!1!B !4!gfe!1!d |
"A"!3!cdBc !1!AB!3!c!1!d | !2!e!4!gfd !2!e!1!d!2!B!1!d | "G"!4!g3e "D"!3!f2e!1!d | "E"!3!cdBc "A"!1!A4:|
|: "A"!5!a2!1!AA !5!aA!5!bA | !5!aAzA !5!agef | "G"!4!g!1!B!2!B!1!B !4!gB!5!aB | !4!g!1!B!2!B!1!B !4!gefg |
|1 "A"!5!a2!1!AA !5!aA!5!bA | !5!aAzA !5!agef  |  "G"!4!g3e "D"!3!f2e!1!d | "E"!3!cdBc "A"!1!A4 :|
|2 "A"!5!a3f !4!g2ge | !3!f2fd {g}!2!edef |  "G"!4!g3e "D"!3!f2e!1!d | "E"!3!cdBc "A"!1!A4 ||


